X:79
T:Crossing The Minch 
C:Joe Buchanan's Scottish Tome - Page 329.0
I:329 0
R:Hornpipe
Z:Carl Allison
L:1/8
M:4/4
K:D
(A>d) | "D" f>A ((3AAA) f2 e>f | "G" g>Be>d d>cd>e | \
"D" f>A ((3AAA) f2 e>f | "G" g>Be>d g2 d>cd>e |
"D" f>A ((3AAA) f2 e>f | "G" g>B ((3BBB) g2 a>g | \
"D" f>ga>f "A7" g>ecd | "A" e2 "G" d2 "D" d2 :|
(A>d) | "D" f>A ((3AAA) f2 e>f | "G" g>B ((3BBB) g>aa>g | \
"D" f>A ((3AAA) f>ga>f | "G" g>Be>d d>cd>e |
"D" fA ((3AAA) f>ga>f | "G" g>B ((3BBB) g2 (a>g) | \
"D" f>ga>f "A7" g>ec>e | "A" e2 "G" d2 "D" d2 :|
(A>d) | "D" f>A ((3AAA) f>Aef | "G" g>B ((3BBB) g>Ba>g | \
"D" f>A ((3AAA) f>Ae>f | "G" g>Be>d d>cd>e |
"D" f>A ((3AAA) f>Ae>f | "G" gB ((3BBB) g2 (a>g) | \
"D" f>ga>f "A7" g>ec>d | "A" e2 "G" d2 "D" d2 :|
(A>d) | "D" f>A ((3AAA) f>Ae>f | "G" g>B ((3BBB) g>B ((3BBB) | \
"D" f>A ((3AAA) "D" f>A ((3AAA) | "A" e>fe>d d>cd>e |
"D" f>A ((3AAA) f>A ((3AAA) | "G" g>A ((3AAA) g2 (a>g) | \
"D" f>ga>f "A7" g>ec>d | "A" e2 "G" d2 "D" d2 :|
%%withxrefs 1
%%titleformat  T , R-1  C1
%%notespacingfactor 1

